src/components/Icon/assets/zoom-out.svg

<svg width="24" height="24" viewBox="0 0 24 24" fill="none" xmlns="http://www.w3.org/2000/svg">
<g id="zoom-out">
<path id="Combined Shape" fill-rule="evenodd" clip-rule="evenodd" d="M4.00021 10.0001C4.00021 13.3091 6.69121 16.0001 10.0002 16.0001C13.3092 16.0001 16.0002 13.3091 16.0002 10.0001C16.0002 6.69109 13.3092 4.00009 10.0002 4.00009C6.69121 4.00009 4.00021 6.69109 4.00021 10.0001ZM16.3122 14.8971L22.4142 21.0001L21.0002 22.4141L14.8972 16.3121C13.5422 17.3661 11.8462 18.0001 10.0002 18.0001C5.58921 18.0001 2.00021 14.4111 2.00021 10.0001C2.00021 5.58909 5.58921 2.00009 10.0002 2.00009C14.4112 2.00009 18.0002 5.58909 18.0002 10.0001C18.0002 11.8461 17.3662 13.5421 16.3122 14.8971ZM14 11H6V8.99999H14V11Z" fill="#242428"/>
</g>
</svg>

<svg xmlns="http://www.w3.org/2000/svg" width="24" height="24" fill="none" viewBox="0 0 24 24">
    <path fill="#65676A" fill-rule="evenodd" d="M4 10c0 3.31 2.691 6 6 6 3.31 0 6-2.69 6-6 0-3.309-2.69-6-6-6-3.309 0-6 2.691-6 6zm12.312 4.897L22.414 21 21 22.414l-6.103-6.102C13.542 17.366 11.847 18 10 18c-4.41 0-8-3.589-8-8 0-4.41 3.59-8 8-8 4.411 0 8 3.59 8 8 0 1.846-.634 3.542-1.688 4.897zM14 11H6V9h8v2z" clip-rule="evenodd"/>
</svg>
